symbols/web/queue_play_next/materialsymbolsrounded/queue_play_next_wght500grad200_20px.svg

<svg xmlns="http://www.w3.org/2000/svg" height="20" width="20"><path d="M15.729 18.375q-.312-.313-.312-.76 0-.448.312-.761l1.896-1.916-1.917-1.917q-.354-.354-.343-.761.01-.406.343-.739.313-.313.771-.313.459 0 .771.313l2.583 2.562q.188.188.282.417.093.229.093.458 0 .23-.093.459-.094.229-.282.395l-2.583 2.605q-.312.312-.76.291-.448-.02-.761-.333ZM7.5 18.104q-.5 0-.854-.354t-.354-.854v-.458H3.396q-1.021 0-1.729-.709Q.958 15.021.958 14V4.104q0-1.021.709-1.729.708-.708 1.729-.708h13.292q1.02 0 1.739.708.719.708.719 1.729v4.584q0 .479-.365.843-.364.365-.864.365-.479 0-.855-.365-.374-.364-.374-.843V4.104H3.396V14h9.687q.5 0 .865.365.364.364.364.843 0 .5-.281.823-.281.323-.635.407h.562v.458q0 .5-.354.854t-.854.354Zm2.542-5.437q.479 0 .812-.344.334-.344.334-.802v-1.313H12.5q.458 0 .802-.333.344-.333.344-.792 0-.479-.344-.812-.344-.333-.802-.333h-1.312V6.625q0-.458-.344-.802-.344-.344-.802-.344-.459 0-.802.344-.344.344-.344.802v1.313H7.604q-.458 0-.802.333-.344.333-.344.791 0 .48.344.813.344.333.802.333h1.292v1.313q0 .458.344.802.343.344.802.344Zm0-3.605Z"/></svg>

<svg xmlns="http://www.w3.org/2000/svg" height="20" width="20"><path d="M15.729 18.375Q15.417 18.062 15.417 17.615Q15.417 17.167 15.729 16.854L17.625 14.938L15.708 13.021Q15.354 12.667 15.365 12.26Q15.375 11.854 15.708 11.521Q16.021 11.208 16.479 11.208Q16.938 11.208 17.25 11.521L19.833 14.083Q20.021 14.271 20.115 14.5Q20.208 14.729 20.208 14.958Q20.208 15.188 20.115 15.417Q20.021 15.646 19.833 15.812L17.25 18.417Q16.938 18.729 16.49 18.708Q16.042 18.688 15.729 18.375ZM7.5 18.104Q7 18.104 6.646 17.75Q6.292 17.396 6.292 16.896V16.438H3.396Q2.375 16.438 1.667 15.729Q0.958 15.021 0.958 14V4.104Q0.958 3.083 1.667 2.375Q2.375 1.667 3.396 1.667H16.688Q17.708 1.667 18.427 2.375Q19.146 3.083 19.146 4.104V8.688Q19.146 9.167 18.781 9.531Q18.417 9.896 17.917 9.896Q17.438 9.896 17.062 9.531Q16.688 9.167 16.688 8.688V4.104Q16.688 4.104 16.688 4.104Q16.688 4.104 16.688 4.104H3.396Q3.396 4.104 3.396 4.104Q3.396 4.104 3.396 4.104V14Q3.396 14 3.396 14Q3.396 14 3.396 14H13.083Q13.583 14 13.948 14.365Q14.312 14.729 14.312 15.208Q14.312 15.708 14.031 16.031Q13.75 16.354 13.396 16.438H13.958V16.896Q13.958 17.396 13.604 17.75Q13.25 18.104 12.75 18.104ZM10.042 12.667Q10.521 12.667 10.854 12.323Q11.188 11.979 11.188 11.521V10.208H12.5Q12.958 10.208 13.302 9.875Q13.646 9.542 13.646 9.083Q13.646 8.604 13.302 8.271Q12.958 7.938 12.5 7.938H11.188V6.625Q11.188 6.167 10.844 5.823Q10.5 5.479 10.042 5.479Q9.583 5.479 9.24 5.823Q8.896 6.167 8.896 6.625V7.938H7.604Q7.146 7.938 6.802 8.271Q6.458 8.604 6.458 9.062Q6.458 9.542 6.802 9.875Q7.146 10.208 7.604 10.208H8.896V11.521Q8.896 11.979 9.24 12.323Q9.583 12.667 10.042 12.667ZM10.042 9.062Q10.042 9.062 10.042 9.062Q10.042 9.062 10.042 9.062Q10.042 9.062 10.042 9.062Q10.042 9.062 10.042 9.062Q10.042 9.062 10.042 9.062Q10.042 9.062 10.042 9.062Q10.042 9.062 10.042 9.062Q10.042 9.062 10.042 9.062Z"/></svg>
